!!!COM: Mozart, Wolfgang Amadeus
!!!CDT: 1756/01/27/-1791/12/05/
!!!CNT: German
!!!OTL: Piano Sonata No. 6 in D major
!!!SCT1: K<sup>1</sup> 284
!!!SCT2: K<sup>6</sup> 205b
!!!OMV: Mvmt. 3f
!!!OMD: Variation 5
!!!ODT: 1775///
**kern	**kern	**dynam
*staff2	*staff1	*staff1
*>[A,A,B,B]	*>[A,A,B,B]	*>[A,A,B,B]
*>norep[A,B]	*>norep[A,B]	*>norep[A,B]
*>A	*>A	*>A
*clefF4	*clefG2	*clefG2
*k[f#c#]	*k[f#c#]	*k[f#c#]
*D:	*D:	*D:
*M2/2	*M2/2	*M2/2
*met(c|)	*met(c|)	*met(c|)
*MM120	*MM120	*MM120
=!|:	=!|:	=!|:
2r	(8aa'\L	f
.	8aa'\	.
.	8aa'\	.
.	8aa'\J)	.
*clefG2	*	*
=1	=1	=1
(8d/ 8f#/L	(4aa\	.
8e/ 8g/	.	.
8f#/ 8a/	8dd\)	.
8d/ 8f#/J)	8r	.
(8B/ 8d/L	(8ddd'\L	.
8c#/ 8e/	8ddd'\	.
8d/ 8f#/	8ddd'\	.
8B/ 8d/J)	8ddd'\J)	.
*clefF4	*	*
=2	=2	=2
(8G\ 8B\L	(4ddd\	.
8A\ 8c#\	.	.
8B\ 8d\	8ee\)	.
8G\ 8B\J)	8r	.
(8A\ 8c#\L	(8gg'\L	.
8B\ 8d\	8gg'\	.
8c#\ 8e\	8gg'\	.
8A\ 8c#\J)	8gg'\J)	.
=3	=3	=3
*^	*	*
2.d/	(4d\	(8.ff#\L	.
.	.	16dd\k)	.
.	4cn\	(8.aa\	.
.	.	16ff#\Jk)	.
.	4B\)	(8.gg\L	.
.	.	16dd\k)	.
4ryy	4G\	8.gg\ (8.bb\	.
.	.	16ee\ 16gg\Jk)	.
*v	*v	*	*
=4	=4	=4
2A\	4dd\ (4ff#\	.
.	8cc#\ 8ee\)	.
.	8r	.
2r	(8aa'\L	.
.	8aa'\	.
.	8aa'\	.
.	8aa'\J)	.
*clefG2	*	*
=5	=5	=5
(8d/ 8f#/L	(4aa\	.
8e/ 8g/	.	.
8f#/ 8a/	8dd\)	.
8e/ 8g/J	8r	.
8d/ 8f#/L	(8ddd'\L	.
8c#/ 8e/	8ddd'\	.
8B/ 8d/	8ddd'\	.
8A/) 8c#/J	8ddd'\J)	.
*clefF4	*	*
=6	=6	=6
8G#\ (8B\L	(4ddd\	.
8F#\ 8A\	.	.
8E\ 8G#\	8gg#\)	.
8F#\ 8A\J	8r	.
8G#\ 8B\L	(4bb\	.
8A\ 8c#\	.	.
8B\ 8d\	8ee\)	.
8G#\ 8B\J)	8r	.
=7	=7	=7
4A\ 4c#\	(8.ee\L	.
.	16aa\k)	.
4D\ 4B\	(8.ff#\	.
.	16dd\Jk)	.
4E\ 4A\	(8.cc#\L	.
.	16ee\k)	.
4E\ 4G#\	(8.dd\	.
.	16b\Jk)	.
=8	=8	=8
(32G#Q/	(32bQ/	.
4A\)	4a/)	.
4AA/	4r	.
=:|!|:	=:|!|:	=:|!|:
*>B	*>B	*>B
2r	(8cccn'\L	p
.	8ccc'\	.
.	8ccc'\	.
.	8ccc'\J)	.
*clefG2	*	*
=9	=9	=9
(8a/ 8ccn/L	(8dd#\L	.
8g#/ 8b/J)	8ee\)	.
4r	(8aa#\	.
.	8bb\J)	.
(8gn/ 8b-/L	(8cc#X\L	.
8f#/) 8a/J	8ddn\)	.
4r	(8gg#\	.
.	8aan\J)	.
=10	=10	=10
(8b/ 8dd/L	(8ddd'\L	f
8a/ 8cc#X/	8ddd'\	.
8g/ 8bn/	8ddd'\	.
8f#/) 8a/J	8ddd'\J	.
(8g/ 8b/L	8ddd'\L	.
8f#/ 8a/	8ddd'\	.
8e/ 8g/	8ddd'\	.
8d/) 8f#/J	8ddd'\J)	.
=11	=11	=11
*^	*	*
2.a/	4c#\	(8.gg\L	p
.	.	16aa\k)	.
.	4d\	(8.ff#\	.
.	.	16dd\Jk)	.
.	4c#\	(8.ee\L	.
.	.	16aa\k)	.
(8.d/L	4B\	(8.gg#\	.
16g#/Jk)	.	16dd\Jk)	.
*v	*v	*	*
=12	=12	=12
2A/ 2a/	4dd\ (4ff#\	.
.	8cc#\ 8ee\)	.
.	8r	.
2r	(8eee'\L	.
.	8eee'\	.
.	8eee'\	.
.	8eee'\J)	.
=13	=13	=13
2r	(4eee\	.
.	8aa\)	.
.	8r	.
(8a'/L	2r	f
8a'/	.	.
8a'/	.	.
8a'/J)	.	.
=14	=14	=14
(4a/	(8dd\ 8ff#\L	.
.	8ee\ 8ggn\	.
8d/)	8ff#\ 8aa\	.
8r	8gg\ 8bb\J)	.
*clefF4	*	*
(8d'\L	(8ff#\ 8aa\L	p
8d'\	8gg\ 8bb\	.
8d'\	8ee\ 8ccc#\	.
8d'\J)	8ff#\ 8ddd\J)	.
=15	=15	=15
(4d\	(8gg\ 8bb\L	.
.	8aa\ 8ccc#\	.
8G\)	8bb\ 8ddd\	.
8r	8gg\ 8bb\J)	.
(4G\	(8ee\ 8gg\L	f
.	8ff#\ 8aa\	.
8C#/)	8gg\ 8bb\	.
8r	8ee\ 8gg\J)	.
=16	=16	=16
4D\	(8.dd\ 8.ff#\L	.
.	16ddd\k)	.
4G\ 4e\	(8.bb\	.
.	(16gg\Jk)	.
4A\ 4d\	8.ff#\L	.
.	16aa\k)	.
4A\ 4c#\	(8.gg\	.
.	16ee\Jk)	.
=17	=17	=17
32c#Q/	32eeQ/	.
4d\	4dd\	.
4D\	4r	.
==:|!	==:|!	==:|!
*-	*-	*-
!!!SMS: Alte Mozart-Ausgabe, Band 20, Breitkopf &amp; H&auml;rtel 1877-1883.
!!!ONB: Stich und Druck von Breitkopf &amp; H&auml;rtel in Leipzig
!!!ONB: Ausgegeben 1878
!!!ENC: Craig Stuart Sapp
!!!END: 2009/09/22/
!!!title: @{OTL}, K 284 (205b), @{OMV}
!!!hum2abc: --no-tempo -p "%gracespace 0 6.0 12.0"
